<?xml version="1.0" encoding="UTF-8"?>
<map version="1.10" tiledversion="1.11.2" orientation="orthogonal" renderorder="right-down" width="25" height="19" tilewidth="32" tileheight="32" infinite="0" nextlayerid="10" nextobjectid="111">
 <properties>
  <property name="BGM" value="Audio\BGM\Buff.mp3"/>
  <property name="Name" value="알 수 없는 곳 1"/>
  <property name="PPU" type="float" value="32"/>
  <property name="ReturnMap" type="int" value="1"/>
 </properties>
 <tileset firstgid="1" name="TemplateTileset" tilewidth="32" tileheight="32" tilecount="56" columns="7">
  <image source="../Tilesets/TemplateTileset.png" width="224" height="256"/>
 </tileset>
 <layer id="3" name="Tile Layer 1" width="25" height="19">
  <data encoding="csv">
7,7,7,7,7,7,7,7,7,7,7,7,7,7,7,7,7,7,7,7,7,7,7,7,7,
7,7,7,7,7,7,7,7,7,7,7,7,7,7,7,7,7,7,7,7,7,7,7,7,7,
7,7,7,7,7,7,7,7,7,7,7,7,7,7,7,7,7,7,7,7,7,7,7,7,7,
7,7,7,7,7,7,7,7,7,7,7,7,7,7,7,7,7,7,7,7,7,7,7,7,7,
7,7,7,7,7,7,7,7,7,7,7,7,7,7,7,7,7,7,7,7,7,7,7,7,7,
7,7,7,7,7,7,7,7,7,7,7,7,7,7,7,7,7,7,7,7,7,7,7,7,7,
7,7,7,7,7,7,7,7,7,7,7,7,7,7,7,7,7,7,7,7,7,7,7,7,7,
7,7,7,7,7,7,7,7,7,7,7,7,7,7,7,7,7,7,7,7,7,7,7,7,7,
7,7,7,7,7,7,7,7,7,7,7,7,7,7,7,7,7,7,7,7,7,7,7,7,7,
7,7,7,7,7,7,7,7,7,7,7,7,7,7,7,7,7,7,7,7,7,7,7,7,7,
7,7,7,7,7,7,7,7,7,7,7,7,7,7,7,7,7,7,7,7,7,7,7,7,7,
7,7,7,7,7,7,7,7,7,7,7,7,7,7,7,7,7,7,7,7,7,7,7,7,7,
7,7,7,7,7,7,7,7,7,7,7,7,7,7,7,7,7,7,7,7,7,7,7,7,7,
7,7,7,7,7,7,7,7,7,7,7,7,7,7,7,7,7,7,7,7,7,7,7,7,7,
7,7,7,7,7,7,7,7,7,7,7,7,7,7,7,7,7,7,7,7,7,7,7,7,7,
7,7,7,7,7,7,7,7,7,7,7,7,7,7,7,7,7,7,7,7,7,7,7,7,7,
7,7,7,7,7,7,7,7,7,7,7,7,7,7,7,7,7,7,7,7,7,7,7,7,7,
7,7,7,7,7,7,7,7,7,7,7,7,7,7,7,7,7,7,7,7,7,7,7,7,7,
7,7,7,7,7,7,7,7,7,7,7,7,7,7,7,7,7,7,7,7,7,7,7,7,7
</data>
 </layer>
 <layer id="4" name="Tile Layer 2" width="25" height="19">
  <data encoding="csv">
0,0,0,0,0,0,0,0,0,0,0,0,0,0,0,0,0,0,0,0,0,0,0,0,0,
0,0,0,0,0,0,0,0,0,0,0,0,0,0,0,0,0,0,0,0,0,0,0,0,0,
0,0,0,0,0,0,0,0,0,0,0,0,0,0,0,0,0,0,0,0,0,0,0,0,0,
0,0,0,0,0,0,0,0,0,0,0,0,0,0,0,0,0,0,0,0,0,0,0,0,0,
0,0,0,0,0,0,0,0,0,0,0,0,0,0,0,0,0,0,0,0,0,0,0,0,0,
0,0,0,0,0,0,0,0,0,0,0,0,0,0,0,0,0,0,0,0,0,0,0,0,0,
0,0,0,0,0,0,0,0,0,0,0,0,0,0,0,0,0,0,0,0,0,0,0,0,0,
0,0,0,0,0,0,0,0,0,0,0,0,0,0,0,0,0,0,0,0,0,0,0,0,0,
0,0,0,0,0,0,0,0,0,0,0,0,0,0,0,0,0,0,0,0,0,0,0,0,0,
0,0,0,0,0,0,0,0,0,0,0,0,0,0,0,0,0,0,0,0,0,0,0,0,0,
0,0,0,0,0,0,0,0,0,0,0,0,0,0,0,0,0,0,0,0,0,0,0,0,0,
0,0,0,0,0,0,0,0,0,32,32,32,32,32,0,0,0,0,0,0,0,0,0,0,0,
0,0,0,0,0,0,0,0,0,0,0,0,0,0,0,0,0,0,0,0,0,0,0,0,0,
0,0,0,0,0,0,0,0,0,0,0,0,0,0,0,0,0,0,0,0,0,0,0,0,0,
0,0,0,0,0,0,0,0,0,0,0,0,0,0,0,32,32,32,32,0,0,0,0,0,0,
0,0,0,10,1,1,9,0,0,0,0,0,0,0,0,0,0,0,0,0,0,0,0,0,0,
0,0,10,1,1,1,1,9,0,0,0,0,0,0,0,0,0,0,0,0,0,0,0,0,0,
32,32,32,32,32,32,32,32,32,32,32,32,32,32,32,32,32,32,32,32,32,32,32,32,32,
32,32,32,32,32,32,32,32,32,32,32,32,32,32,32,32,32,32,32,32,32,32,32,32,32
</data>
 </layer>
 <objectgroup id="8" name="Portal">
  <object id="81" name="Portal" type="Portal" x="768" y="544">
   <properties>
    <property name="ID" type="int" value="0"/>
    <property name="ToID" type="int" value="0"/>
    <property name="ToMap" type="int" value="2"/>
   </properties>
   <point/>
  </object>
 </objectgroup>
 <objectgroup id="2" name="Foothold">
  <object id="18" x="288" y="352">
   <properties>
    <property name="ID" type="int" value="7"/>
    <property name="Next" type="int" value="0"/>
    <property name="Previous" type="int" value="0"/>
    <property name="Type" type="int" value="1"/>
   </properties>
   <polyline points="0,0 160,0"/>
  </object>
  <object id="19" x="480" y="448">
   <properties>
    <property name="ID" type="int" value="6"/>
    <property name="Next" type="int" value="0"/>
    <property name="Previous" type="int" value="0"/>
    <property name="Type" type="int" value="1"/>
   </properties>
   <polyline points="0,0 128,0"/>
  </object>
  <object id="28" x="0" y="544">
   <properties>
    <property name="ID" type="int" value="1"/>
    <property name="Next" type="int" value="2"/>
    <property name="Previous" type="int" value="0"/>
    <property name="Type" type="int" value="0"/>
   </properties>
   <polyline points="0,0 64,0"/>
  </object>
  <object id="29" x="64" y="544">
   <properties>
    <property name="ID" type="int" value="2"/>
    <property name="Next" type="int" value="3"/>
    <property name="Previous" type="int" value="1"/>
    <property name="Type" type="int" value="0"/>
   </properties>
   <polyline points="0,0 64,-64"/>
  </object>
  <object id="30" x="128" y="480">
   <properties>
    <property name="ID" type="int" value="3"/>
    <property name="Next" type="int" value="4"/>
    <property name="Previous" type="int" value="2"/>
    <property name="Type" type="int" value="0"/>
   </properties>
   <polyline points="0,0 64,0"/>
  </object>
  <object id="33" x="192" y="480">
   <properties>
    <property name="ID" type="int" value="4"/>
    <property name="Next" type="int" value="5"/>
    <property name="Previous" type="int" value="3"/>
    <property name="Type" type="int" value="0"/>
   </properties>
   <polyline points="0,0 64,64"/>
  </object>
  <object id="34" x="256" y="544">
   <properties>
    <property name="ID" type="int" value="5"/>
    <property name="Next" type="int" value="0"/>
    <property name="Previous" type="int" value="4"/>
    <property name="Type" type="int" value="0"/>
   </properties>
   <polyline points="0,0 544,0"/>
  </object>
 </objectgroup>
 <objectgroup id="7" name="SpawnPoint"/>
 <objectgroup id="6" name="Spawn">
  <object id="12" name="Npc" type="Npc" x="304" y="352">
   <point/>
  </object>
 </objectgroup>
 <objectgroup id="9" name="Prop">
  <object id="83" name="Platform_0" type="Prop" x="48" y="544">
   <properties>
    <property name="Index" type="int" value="0"/>
    <property name="path" value="Sprites\Maps\platform.png"/>
   </properties>
   <point/>
  </object>
  <object id="84" name="platform_2" type="Prop" x="144" y="576">
   <properties>
    <property name="index" type="int" value="2"/>
    <property name="path" value="Sprites\Maps\platform.png"/>
   </properties>
   <point/>
  </object>
  <object id="85" name="Platform_0" type="Prop" x="144" y="512">
   <properties>
    <property name="Index" type="int" value="0"/>
    <property name="path" value="Sprites\Maps\platform.png"/>
   </properties>
   <point/>
  </object>
  <object id="86" name="platform_2" type="Prop" x="144" y="640">
   <properties>
    <property name="index" type="int" value="2"/>
    <property name="path" value="Sprites\Maps\platform.png"/>
   </properties>
   <point/>
  </object>
  <object id="87" name="platform_2" type="Prop" x="48" y="608">
   <properties>
    <property name="index" type="int" value="2"/>
    <property name="path" value="Sprites\Maps\platform.png"/>
   </properties>
   <point/>
  </object>
  <object id="88" name="Platform_0" type="Prop" x="299" y="544">
   <properties>
    <property name="Index" type="int" value="0"/>
    <property name="path" value="Sprites\Maps\platform.png"/>
   </properties>
   <point/>
  </object>
  <object id="89" name="platform_2" type="Prop" x="295" y="606">
   <properties>
    <property name="index" type="int" value="2"/>
    <property name="path" value="Sprites\Maps\platform.png"/>
   </properties>
   <point/>
  </object>
  <object id="90" name="platform_2" type="Prop" x="446" y="608">
   <properties>
    <property name="index" type="int" value="2"/>
    <property name="path" value="Sprites\Maps\platform.png"/>
   </properties>
   <point/>
  </object>
  <object id="91" name="Platform_0" type="Prop" x="447" y="544">
   <properties>
    <property name="Index" type="int" value="0"/>
    <property name="path" value="Sprites\Maps\platform.png"/>
   </properties>
   <point/>
  </object>
  <object id="92" name="platform_2" type="Prop" x="593" y="608">
   <properties>
    <property name="index" type="int" value="2"/>
    <property name="path" value="Sprites\Maps\platform.png"/>
   </properties>
   <point/>
  </object>
  <object id="93" name="Platform_0" type="Prop" x="610" y="544">
   <properties>
    <property name="Index" type="int" value="0"/>
    <property name="path" value="Sprites\Maps\platform.png"/>
   </properties>
   <point/>
  </object>
  <object id="94" name="Platform_0" type="Prop" x="752" y="544">
   <properties>
    <property name="Index" type="int" value="0"/>
    <property name="path" value="Sprites\Maps\platform.png"/>
   </properties>
   <point/>
  </object>
  <object id="95" name="platform_2" type="Prop" x="740" y="608">
   <properties>
    <property name="index" type="int" value="2"/>
    <property name="path" value="Sprites\Maps\platform.png"/>
   </properties>
   <point/>
  </object>
  <object id="96" name="Clouds_2" type="Prop" x="354" y="160">
   <properties>
    <property name="index" type="int" value="1"/>
    <property name="path" value="Sprites\Maps\clouds 2.png"/>
   </properties>
   <point/>
  </object>
  <object id="97" name="Clouds_2" type="Prop" x="240" y="608">
   <properties>
    <property name="index" type="int" value="1"/>
    <property name="path" value="Sprites\Maps\clouds 2.png"/>
   </properties>
   <point/>
  </object>
  <object id="98" name="Clouds" type="Prop" x="624" y="192">
   <properties>
    <property name="index" type="int" value="0"/>
    <property name="path" value="Sprites\Maps\clouds.png"/>
   </properties>
   <point/>
  </object>
  <object id="99" name="Clouds" type="Prop" x="102" y="220">
   <properties>
    <property name="index" type="int" value="4"/>
    <property name="path" value="Sprites\Maps\clouds.png"/>
   </properties>
   <point/>
  </object>
  <object id="100" name="Clouds_2" type="Prop" x="400" y="608">
   <properties>
    <property name="index" type="int" value="1"/>
    <property name="path" value="Sprites\Maps\clouds 2.png"/>
   </properties>
   <point/>
  </object>
  <object id="101" name="Clouds_2" type="Prop" x="528" y="608">
   <properties>
    <property name="index" type="int" value="1"/>
    <property name="path" value="Sprites\Maps\clouds 2.png"/>
   </properties>
   <point/>
  </object>
  <object id="102" name="Clouds_2" type="Prop" x="688" y="608">
   <properties>
    <property name="index" type="int" value="1"/>
    <property name="path" value="Sprites\Maps\clouds 2.png"/>
   </properties>
   <point/>
  </object>
  <object id="103" name="Clouds_2" type="Prop" x="80" y="608">
   <properties>
    <property name="index" type="int" value="1"/>
    <property name="path" value="Sprites\Maps\clouds 2.png"/>
   </properties>
   <point/>
  </object>
  <object id="104" name="Platform small" type="Prop" x="346" y="417">
   <properties>
    <property name="index" type="int" value="3"/>
    <property name="path" value="Sprites\Maps\platform small.png"/>
   </properties>
   <point/>
  </object>
  <object id="105" name="Flowers" type="Prop" x="112" y="480">
   <properties>
    <property name="Index" type="int" value="1"/>
    <property name="path" value="Sprites\Maps\flowers 2.png"/>
   </properties>
   <point/>
  </object>
  <object id="106" name="Clouds_2" type="Prop" x="144" y="608">
   <properties>
    <property name="index" type="int" value="1"/>
    <property name="path" value="Sprites\Maps\clouds 2.png"/>
   </properties>
   <point/>
  </object>
  <object id="107" name="Clouds_2" type="Prop" x="752" y="608">
   <properties>
    <property name="index" type="int" value="1"/>
    <property name="path" value="Sprites\Maps\clouds 2.png"/>
   </properties>
   <point/>
  </object>
  <object id="108" name="Platform" type="Prop" x="529" y="478">
   <properties>
    <property name="index" type="int" value="1"/>
    <property name="path" value="Sprites\Maps\platform.png"/>
   </properties>
   <point/>
  </object>
  <object id="109" name="platform" type="Prop" x="528" y="551">
   <properties>
    <property name="index" type="int" value="2"/>
    <property name="path" value="Sprites\Maps\platform.png"/>
   </properties>
   <point/>
  </object>
 </objectgroup>
</map>
