<?xml version="1.0" encoding="UTF-8"?>
<map version="1.10" tiledversion="1.11.2" orientation="orthogonal" renderorder="right-down" width="25" height="30" tilewidth="32" tileheight="32" infinite="0" nextlayerid="8" nextobjectid="36">
 <properties>
  <property name="BGM" value="Audio\BGM\Buff.mp3"/>
  <property name="Name" value="알 수 없는 곳 2"/>
  <property name="PPU" type="float" value="32"/>
  <property name="ReturnMap" type="int" value="1"/>
 </properties>
 <tileset firstgid="1" name="TemplateTileset" tilewidth="32" tileheight="32" tilecount="56" columns="7">
  <image source="../Tilesets/TemplateTileset.png" width="224" height="256"/>
 </tileset>
 <tileset firstgid="57" name="Buildings-sheet" tilewidth="32" tileheight="32" tilecount="625" columns="25">
  <image source="../Tilesets/Forest/Buildings-sheet.png" width="800" height="800"/>
 </tileset>
 <tileset firstgid="682" name="Hive-sheet" tilewidth="32" tileheight="32" tilecount="625" columns="25">
  <image source="../Tilesets/Forest/Hive-sheet.png" width="800" height="800"/>
 </tileset>
 <tileset firstgid="1307" name="Interior-01-sheet" tilewidth="32" tileheight="32" tilecount="625" columns="25">
  <image source="../Tilesets/Forest/Interior-01-sheet.png" width="800" height="800"/>
 </tileset>
 <tileset firstgid="1932" name="Props-Rocks-sheet" tilewidth="32" tileheight="32" tilecount="378" columns="18">
  <image source="../Tilesets/Forest/Props-Rocks-sheet.png" width="576" height="672"/>
 </tileset>
 <tileset firstgid="2310" name="Tiles-sheet" tilewidth="32" tileheight="32" tilecount="625" columns="25">
  <image source="../Tilesets/Forest/Tiles-sheet.png" width="800" height="800"/>
 </tileset>
 <tileset firstgid="2935" name="Tree-Assets-sheet" tilewidth="32" tileheight="32" tilecount="525" columns="21">
  <image source="../Tilesets/Forest/Tree-Assets-sheet.png" width="672" height="800"/>
 </tileset>
 <layer id="3" name="Tile Layer 1" width="25" height="30">
  <data encoding="csv">
7,7,7,7,7,7,7,7,7,7,7,7,7,7,7,7,7,7,7,7,7,7,7,7,7,
7,7,7,7,7,7,7,7,7,7,7,7,7,7,7,7,7,7,7,7,7,7,7,7,7,
7,7,7,7,7,7,7,7,7,7,7,7,7,7,7,7,7,7,7,7,7,7,7,7,7,
7,7,7,7,7,7,7,7,7,7,7,7,7,7,7,7,7,7,7,7,7,7,7,7,7,
7,7,7,7,7,7,7,7,7,7,7,7,7,7,7,7,7,7,7,7,7,7,7,7,7,
7,7,7,7,7,7,7,7,7,7,7,7,7,7,7,7,7,7,7,7,7,7,7,7,7,
7,7,7,7,7,7,7,7,7,7,7,7,7,7,7,7,7,7,7,7,7,7,7,7,7,
7,7,7,7,7,7,7,7,7,7,7,7,7,7,7,7,7,7,7,7,7,7,7,7,7,
7,7,7,7,7,7,7,7,7,7,7,7,7,7,7,7,7,7,7,7,7,7,7,7,7,
7,7,7,7,7,7,7,7,7,7,7,7,7,7,7,7,7,7,7,7,7,7,7,7,7,
7,7,7,7,7,7,7,7,7,7,7,7,7,7,7,7,7,7,7,7,7,7,7,7,7,
7,7,7,7,7,7,7,7,7,7,7,7,7,7,7,7,7,7,7,7,7,7,7,7,7,
7,7,7,7,7,7,7,7,7,7,7,7,7,7,7,7,7,7,7,7,7,7,7,7,7,
7,7,7,7,7,7,7,7,7,7,7,7,7,7,7,7,7,7,7,7,7,7,7,7,7,
7,7,7,7,7,7,7,7,7,7,7,7,7,7,7,7,7,7,7,7,7,7,7,7,7,
7,7,7,7,7,7,7,7,7,7,7,7,7,7,7,7,7,7,7,7,7,7,7,7,7,
7,7,7,7,7,7,7,7,7,7,7,7,7,7,7,7,7,7,7,7,7,7,7,7,7,
7,7,7,7,7,7,7,7,7,7,7,7,7,7,7,7,7,7,7,7,7,7,7,7,7,
7,7,7,7,7,7,7,7,7,7,7,7,7,7,7,7,7,7,7,7,7,7,7,7,7,
7,7,7,7,7,7,7,7,7,7,7,7,7,7,7,7,7,7,7,7,7,7,7,7,7,
7,7,7,7,7,7,7,7,7,7,7,7,7,7,7,7,7,7,7,7,7,7,7,7,7,
7,7,7,7,7,7,7,7,7,7,7,7,7,7,7,7,7,7,7,7,7,7,7,7,7,
7,7,7,7,7,7,7,7,7,7,7,7,7,7,7,7,7,7,7,7,7,7,7,7,7,
7,7,7,7,7,7,7,7,7,7,7,7,7,7,7,7,7,7,7,7,7,7,7,7,7,
7,7,7,7,7,7,7,7,7,7,7,7,7,7,7,7,7,7,7,7,7,7,7,7,7,
7,7,7,7,7,7,7,7,7,7,7,7,7,7,7,7,7,7,7,7,7,7,7,7,7,
7,7,7,7,7,7,7,7,7,7,7,7,7,7,7,7,7,7,7,7,7,7,7,7,7,
7,7,7,7,7,7,7,7,7,7,7,7,7,7,7,7,7,7,7,7,7,7,7,7,7,
7,7,7,7,7,7,7,7,7,7,7,7,7,7,7,7,7,7,7,7,7,7,7,7,7,
7,7,7,7,7,7,7,7,7,7,7,7,7,7,7,7,7,7,7,7,7,7,7,7,7
</data>
 </layer>
 <layer id="4" name="Tile Layer 2" width="25" height="30">
  <data encoding="csv">
0,0,0,0,0,0,0,0,0,0,0,0,0,0,0,0,0,0,0,0,0,0,0,0,0,
0,0,0,0,0,0,0,0,0,0,0,0,0,0,0,0,0,0,0,0,0,0,0,0,0,
0,0,0,0,0,0,0,0,0,0,0,0,0,0,0,0,0,0,0,0,0,0,0,0,0,
0,0,0,0,0,0,0,0,0,0,0,0,0,0,0,0,0,0,0,0,0,0,0,0,0,
0,0,0,0,0,0,0,0,0,0,0,0,0,0,0,0,0,0,0,0,0,0,0,0,0,
0,0,0,0,0,0,0,0,0,0,0,0,0,0,0,0,0,0,0,0,0,0,0,0,0,
0,0,0,0,0,0,0,0,0,0,0,0,0,0,0,0,0,0,0,0,0,0,0,0,0,
0,0,0,0,0,0,0,0,0,0,0,0,0,0,0,0,0,0,0,0,0,0,0,0,0,
0,0,0,0,0,0,0,0,0,0,0,0,0,0,0,0,0,0,0,0,0,0,0,0,0,
0,0,0,0,0,0,0,0,0,0,0,0,0,0,0,0,0,0,0,0,0,0,0,0,0,
0,0,0,0,0,0,0,0,0,2310,2311,2312,2313,2314,0,0,0,0,0,0,0,0,0,0,0,
0,0,0,0,0,0,0,0,0,2335,2336,2337,2338,2339,0,0,0,0,0,0,0,0,0,0,0,
0,0,0,0,0,0,0,0,0,2410,2411,2412,2413,2414,0,0,0,0,0,0,0,0,0,0,0,
0,0,0,0,0,0,0,0,0,0,0,0,0,0,0,2310,2311,2312,2314,0,0,0,0,0,0,
0,0,0,0,0,0,0,0,0,0,0,0,0,0,0,2335,2336,2337,2339,0,0,0,0,0,0,
0,0,0,0,0,0,0,0,0,0,0,0,0,0,0,2410,2411,2412,2414,0,0,0,0,0,0,
2311,2312,2313,2311,2312,2313,2311,2312,2313,2311,2312,2313,2311,2312,2313,2311,2312,2313,2311,2312,2313,2311,2312,2313,2311,
2336,2337,2338,2336,2337,2338,2336,2337,2338,2336,2337,2338,2336,2337,2338,2336,2337,2338,2336,2337,2338,2336,2337,2338,2336,
2361,2362,2363,2361,2362,2363,2361,2362,2363,2361,2362,2363,2361,2362,2363,2361,2362,2363,2361,2362,2363,2361,2362,2363,2361,
2386,2387,2388,2386,2387,2388,2386,2387,2388,2386,2387,2388,2386,2387,2388,2386,2387,2388,2386,2387,2388,2386,2387,2388,2386,
2386,2387,2388,2386,2387,2388,2386,2387,2388,2386,2387,2388,2386,2387,2388,2386,2387,2388,2386,2387,2388,2386,2387,2388,2386,
2386,2387,2388,2386,2387,2388,2386,2387,2388,2386,2387,2388,2386,2387,2388,2386,2387,2388,2386,2387,2388,2386,2387,2388,2386,
2386,2387,2388,2386,2387,2388,2386,2387,2388,2386,2387,2388,2386,2387,2388,2386,2387,2388,2386,2387,2388,2386,2387,2388,2386,
2386,2387,2388,2386,2387,2388,2386,2387,2388,2386,2387,2388,2386,2387,2388,2386,2387,2388,2386,2387,2388,2386,2387,2388,2386,
2386,2387,2388,2386,2387,2388,2386,2387,2388,2386,2387,2388,2386,2387,2388,2386,2387,2388,2386,2387,2388,2386,2387,2388,2386,
2386,2387,2388,2386,2387,2388,2386,2387,2388,2386,2387,2388,2386,2387,2388,2386,2387,2388,2386,2387,2388,2386,2387,2388,2386,
2386,2387,2388,2386,2387,2388,2386,2387,2388,2386,2387,2388,2386,2387,2388,2386,2387,2388,2386,2387,2388,2386,2387,2388,2386,
2386,2387,2388,2386,2387,2388,2386,2387,2388,2386,2387,2388,2386,2387,2388,2386,2387,2388,2386,2387,2388,2386,2387,2388,2386,
2386,2387,2388,2386,2387,2388,2386,2387,2388,2386,2387,2388,2386,2387,2388,2386,2387,2388,2386,2387,2388,2386,2387,2388,2386,
2386,2387,2388,2386,2387,2388,2386,2387,2388,2386,2387,2388,2386,2387,2388,2386,2387,2388,2386,2387,2388,2386,2387,2388,2386
</data>
 </layer>
 <layer id="7" name="Tile Layer 3" width="25" height="30">
  <data encoding="csv">
0,0,0,0,0,0,0,0,0,0,0,0,0,0,0,0,0,0,0,0,0,0,0,0,0,
0,0,0,0,0,0,0,0,0,0,0,0,0,0,0,0,0,0,0,0,0,0,0,0,0,
0,0,0,0,0,0,0,0,0,0,0,0,0,0,0,0,0,0,0,0,0,0,0,0,0,
0,0,0,0,0,0,0,0,0,0,0,0,0,0,0,0,0,0,0,0,0,0,0,0,0,
0,0,0,0,0,0,0,0,0,0,0,0,0,0,0,0,0,0,0,0,0,0,0,0,0,
0,0,0,0,0,0,0,0,0,0,0,0,0,0,0,0,0,0,0,0,0,0,0,0,0,
0,0,0,0,0,0,0,0,0,0,0,0,0,0,0,0,0,0,0,0,0,0,0,0,0,
0,0,0,0,0,0,0,0,0,0,0,0,0,0,0,0,0,0,0,0,0,0,0,0,0,
0,0,0,0,0,0,0,0,0,0,0,0,0,0,0,0,0,0,0,0,0,0,0,0,0,
0,0,0,0,0,0,0,0,0,0,0,0,0,0,0,0,0,0,0,0,0,0,0,0,0,
0,0,0,0,0,0,0,0,0,0,0,0,0,0,0,0,0,0,0,0,0,0,0,0,0,
0,0,0,0,0,0,0,0,0,0,0,0,0,0,0,0,0,0,0,0,0,0,0,0,0,
0,0,0,0,0,0,0,0,0,0,0,0,0,0,0,0,0,0,0,0,1932,1933,1934,1935,0,
0,0,0,0,0,0,0,0,0,0,0,0,0,0,0,0,0,0,0,0,1950,1951,1952,1953,0,
0,0,0,0,0,0,0,0,0,0,0,0,0,0,0,0,0,0,0,0,1968,1969,1970,1971,0,
0,0,0,0,0,0,0,0,0,0,0,0,0,0,0,0,0,0,0,0,1986,1987,1988,1989,0,
0,0,308,309,310,0,0,0,0,0,0,0,0,0,0,0,0,0,0,0,2004,2005,2006,2007,0,
0,0,0,0,0,0,0,0,0,0,0,0,0,0,0,0,0,0,0,0,0,0,0,0,0,
0,0,0,0,0,0,0,0,0,0,0,0,0,0,0,0,0,0,0,0,0,0,0,0,0,
0,0,0,0,0,0,0,0,0,0,0,0,0,0,0,0,0,0,0,0,0,0,0,0,0,
0,0,0,0,0,0,0,0,0,0,0,0,0,0,0,0,0,0,0,0,0,0,0,0,0,
0,0,0,0,0,0,0,0,0,0,0,0,0,0,0,0,0,0,0,0,0,0,0,0,0,
0,0,0,0,0,0,0,0,0,0,0,0,0,0,0,0,0,0,0,0,0,0,0,0,0,
0,0,0,0,0,0,0,0,0,0,0,0,0,0,0,0,0,0,0,0,0,0,0,0,0,
0,0,0,0,0,0,0,0,0,0,0,0,0,0,0,0,0,0,0,0,0,0,0,0,0,
0,0,0,0,0,0,0,0,0,0,0,0,0,0,0,0,0,0,0,0,0,0,0,0,0,
0,0,0,0,0,0,0,0,0,0,0,0,0,0,0,0,0,0,0,0,0,0,0,0,0,
0,0,0,0,0,0,0,0,0,0,0,0,0,0,0,0,0,0,0,0,0,0,0,0,0,
0,0,0,0,0,0,0,0,0,0,0,0,0,0,0,0,0,0,0,0,0,0,0,0,0,
0,0,0,0,0,0,0,0,0,0,0,0,0,0,0,0,0,0,0,0,0,0,0,0,0
</data>
 </layer>
 <objectgroup id="5" name="Portal">
  <object id="8" name="Portal" type="Portal" x="32" y="544">
   <properties>
    <property name="ID" type="int" value="0"/>
    <property name="ToID" type="int" value="0"/>
    <property name="ToMap" type="int" value="1"/>
   </properties>
   <point/>
  </object>
 </objectgroup>
 <objectgroup id="2" name="Foothold">
  <properties>
   <property name="name" value="Unknown"/>
   <property name="ppu" type="float" value="32"/>
   <property name="unique_id" type="int" value="1"/>
  </properties>
  <object id="5" x="0" y="544">
   <properties>
    <property name="ID" type="int" value="1"/>
    <property name="Next" type="int" value="0"/>
    <property name="Previous" type="int" value="0"/>
    <property name="Type" type="int" value="0"/>
   </properties>
   <polyline points="0,0 800,0"/>
  </object>
  <object id="6" x="288" y="352">
   <properties>
    <property name="ID" type="int" value="3"/>
    <property name="Next" type="int" value="0"/>
    <property name="Previous" type="int" value="0"/>
    <property name="Type" type="int" value="1"/>
   </properties>
   <polyline points="0,0 160,0"/>
  </object>
  <object id="7" x="480" y="448">
   <properties>
    <property name="ID" type="int" value="2"/>
    <property name="Next" type="int" value="0"/>
    <property name="Previous" type="int" value="0"/>
    <property name="Type" type="int" value="1"/>
   </properties>
   <polyline points="0,0 128,0"/>
  </object>
 </objectgroup>
 <objectgroup id="6" name="SpawnPoint">
  <object id="13" name="SpawnPoint" x="320" y="352">
   <properties>
    <property name="ID" type="int" value="100000"/>
   </properties>
   <point/>
  </object>
  <object id="14" name="SpawnPoint" x="352" y="352">
   <properties>
    <property name="ID" type="int" value="100000"/>
   </properties>
   <point/>
  </object>
  <object id="15" name="SpawnPoint" x="384" y="352">
   <properties>
    <property name="ID" type="int" value="100000"/>
   </properties>
   <point/>
  </object>
  <object id="16" name="SpawnPoint" x="416" y="352">
   <properties>
    <property name="ID" type="int" value="100000"/>
   </properties>
   <point/>
  </object>
  <object id="17" name="SpawnPoint" x="512" y="448">
   <properties>
    <property name="ID" type="int" value="100001"/>
   </properties>
   <point/>
  </object>
  <object id="18" name="SpawnPoint" x="544" y="448">
   <properties>
    <property name="ID" type="int" value="100001"/>
   </properties>
   <point/>
  </object>
  <object id="19" name="SpawnPoint" x="576" y="448">
   <properties>
    <property name="ID" type="int" value="100001"/>
   </properties>
   <point/>
  </object>
  <object id="20" name="SpawnPoint" x="160" y="544">
   <properties>
    <property name="ID" type="int" value="100002"/>
   </properties>
   <point/>
  </object>
  <object id="21" name="SpawnPoint" x="192" y="544">
   <properties>
    <property name="ID" type="int" value="100002"/>
   </properties>
   <point/>
  </object>
  <object id="22" name="SpawnPoint" x="224" y="544">
   <properties>
    <property name="ID" type="int" value="100002"/>
   </properties>
   <point/>
  </object>
  <object id="23" name="SpawnPoint" x="256" y="544">
   <properties>
    <property name="ID" type="int" value="100002"/>
   </properties>
   <point/>
  </object>
  <object id="24" name="SpawnPoint" x="288" y="544">
   <properties>
    <property name="ID" type="int" value="100002"/>
   </properties>
   <point/>
  </object>
  <object id="25" name="SpawnPoint" x="318" y="544">
   <properties>
    <property name="ID" type="int" value="100002"/>
   </properties>
   <point/>
  </object>
  <object id="26" name="SpawnPoint" x="352" y="544">
   <properties>
    <property name="ID" type="int" value="100003"/>
   </properties>
   <point/>
  </object>
  <object id="27" name="SpawnPoint" x="384" y="544">
   <properties>
    <property name="ID" type="int" value="100003"/>
   </properties>
   <point/>
  </object>
  <object id="28" name="SpawnPoint" x="416" y="544">
   <properties>
    <property name="ID" type="int" value="100003"/>
   </properties>
   <point/>
  </object>
  <object id="29" name="SpawnPoint" x="448" y="544">
   <properties>
    <property name="ID" type="int" value="100003"/>
   </properties>
   <point/>
  </object>
  <object id="30" name="SpawnPoint" x="480" y="544">
   <properties>
    <property name="ID" type="int" value="100003"/>
   </properties>
   <point/>
  </object>
  <object id="31" name="SpawnPoint" x="512" y="544">
   <properties>
    <property name="ID" type="int" value="100003"/>
   </properties>
   <point/>
  </object>
  <object id="32" name="SpawnPoint" x="544" y="544">
   <properties>
    <property name="ID" type="int" value="100003"/>
   </properties>
   <point/>
  </object>
  <object id="33" name="SpawnPoint" x="576" y="544">
   <properties>
    <property name="ID" type="int" value="100003"/>
   </properties>
   <point/>
  </object>
  <object id="34" name="SpawnPoint" x="608" y="544">
   <properties>
    <property name="ID" type="int" value="100003"/>
   </properties>
   <point/>
  </object>
  <object id="35" name="SpawnPoint" x="640" y="544">
   <properties>
    <property name="ID" type="int" value="100003"/>
   </properties>
   <point/>
  </object>
 </objectgroup>
</map>
