<?xml version="1.0" encoding="UTF-8"?>
<map version="1.10" tiledversion="1.10.2" orientation="orthogonal" renderorder="right-down" width="30" height="20" tilewidth="32" tileheight="32" infinite="0" nextlayerid="15" nextobjectid="19">
 <tileset firstgid="1" name="TX Chest Animation" tilewidth="32" tileheight="32" tilecount="256" columns="16">
  <image source="../Sprites/Tilesets/TX Chest Animation.png" width="512" height="512"/>
 </tileset>
 <tileset firstgid="257" name="TX FX Flame" tilewidth="32" tileheight="32" tilecount="36" columns="6">
  <image source="../Sprites/Tilesets/TX FX Flame.png" width="200" height="200"/>
 </tileset>
 <tileset firstgid="293" name="TX FX Torch Flame" tilewidth="32" tileheight="32" tilecount="16" columns="4">
  <image source="../Sprites/Tilesets/TX FX Torch Flame.png" width="128" height="128"/>
 </tileset>
 <tileset firstgid="309" name="TX Tileset Ground" tilewidth="32" tileheight="32" tilecount="256" columns="16">
  <image source="../Sprites/Tilesets/TX Tileset Ground.png" width="512" height="512"/>
 </tileset>
 <tileset firstgid="565" name="TX Village Props" tilewidth="32" tileheight="32" tilecount="1024" columns="32">
  <image source="../Sprites/Tilesets/TX Village Props.png" width="1024" height="1024"/>
 </tileset>
 <tileset firstgid="1589" name="TemplateTileset" tilewidth="32" tileheight="32" tilecount="56" columns="7">
  <image source="../Sprites/Tilesets/TemplateTileset.png" width="224" height="256"/>
 </tileset>
 <objectgroup id="12" name="Collision">
  <object id="11" x="0" y="640" width="960" height="32"/>
  <object id="12" x="0" y="-32" width="960" height="32"/>
  <object id="13" x="-32" y="0" width="32" height="640"/>
  <object id="14" x="960" y="0" width="32" height="640"/>
 </objectgroup>
 <objectgroup id="13" name="Spawn">
  <object id="5" name="Player" type="PlayerCharacter" x="22" y="448">
   <point/>
  </object>
  <object id="6" name="Dummy" type="Dummy" x="77.3333" y="398.667">
   <point/>
  </object>
  <object id="16" name="Knight" type="Knight" x="143.5" y="417">
   <point/>
  </object>
  <object id="17" name="Block" type="Block" x="112" y="432">
   <point/>
  </object>
  <object id="18" name="Block" type="Block" x="176" y="464">
   <point/>
  </object>
 </objectgroup>
 <layer id="14" name="Default" width="30" height="20">
  <properties>
   <property name="Order" type="int" value="-100"/>
  </properties>
  <data encoding="csv">
1595,1595,1595,1595,1595,1595,1595,1595,1595,1595,1595,1595,1595,1595,1595,1595,1595,1595,1595,1595,1595,1595,1595,1595,1595,1595,1595,1595,1595,1595,
1595,1595,1595,1595,1595,1595,1595,1595,1595,1595,1595,1595,1595,1595,1595,1595,1595,1595,1595,1595,1595,1595,1595,1595,1595,1595,1595,1595,1595,1595,
1595,1595,1595,1595,1595,1595,1595,1595,1595,1595,1595,1595,1595,1595,1595,1595,1595,1595,1595,1595,1595,1595,1595,1595,1595,1595,1595,1595,1595,1595,
1595,1595,1595,1595,1595,1595,1595,1595,1595,1595,1595,1595,1595,1595,1595,1595,1595,1595,1595,1595,1595,1595,1595,1595,1595,1595,1595,1595,1595,1595,
1595,1595,1595,1595,1595,1595,1595,1595,1595,1595,1595,1595,1595,1595,1595,1595,1595,1595,1595,1595,1595,1595,1595,1595,1595,1595,1595,1595,1595,1595,
1595,1595,1595,1595,1595,1595,1595,1595,1595,1595,1595,1595,1595,1595,1595,1595,1595,1595,1595,1595,1595,1595,1595,1595,1595,1595,1595,1595,1595,1595,
1595,1595,1595,1595,1595,1595,1595,1595,1595,1595,1595,1595,1595,1595,1595,1595,1595,1595,1595,1595,1595,1595,1595,1595,1595,1595,1595,1595,1595,1595,
1595,1595,1595,1595,1595,1595,1595,1595,1595,1595,1595,1595,1595,1595,1595,1595,1595,1595,1595,1595,1595,1595,1595,1595,1595,1595,1595,1595,1595,1595,
1595,1595,1595,1595,1595,1595,1595,1595,1595,1595,1595,1595,1595,1595,1595,1595,1595,1595,1595,1595,1595,1595,1595,1595,1595,1595,1595,1595,1595,1595,
1595,1595,1595,1595,1595,1595,1595,1595,1595,1595,1595,1595,1595,1595,1595,1595,1595,1595,1595,1595,1595,1595,1595,1595,1595,1595,1595,1595,1595,1595,
1595,1595,1595,1595,1595,1595,1595,1595,1595,1595,1595,1595,1595,1595,1595,1595,1595,1595,1595,1595,1595,1595,1595,1595,1595,1595,1595,1595,1595,1595,
1595,1595,1595,1595,1595,1595,1595,1595,1595,1595,1595,1595,1595,1595,1595,1595,1595,1595,1595,1595,1595,1595,1595,1595,1595,1595,1595,1595,1595,1595,
1595,1595,1595,1595,1595,1595,1595,1595,1595,1595,1595,1595,1595,1595,1595,1595,1595,1595,1595,1595,1595,1595,1595,1595,1595,1595,1595,1595,1595,1595,
1595,1595,1595,1595,1595,1595,1595,1595,1595,1595,1595,1595,1595,1595,1595,1595,1595,1595,1595,1595,1595,1595,1595,1595,1595,1595,1595,1595,1595,1595,
1595,1595,1595,1595,1595,1595,1595,1595,1595,1595,1595,1595,1595,1595,1595,1595,1595,1595,1595,1595,1595,1595,1595,1595,1595,1595,1595,1595,1595,1595,
1595,1595,1595,1595,1595,1595,1595,1595,1595,1595,1595,1595,1595,1595,1595,1595,1595,1595,1595,1595,1595,1595,1595,1595,1595,1595,1595,1595,1595,1595,
1595,1595,1595,1595,1595,1595,1595,1595,1595,1595,1595,1595,1595,1595,1595,1595,1595,1595,1595,1595,1595,1595,1595,1595,1595,1595,1595,1595,1595,1595,
1595,1595,1595,1595,1595,1595,1595,1595,1595,1595,1595,1595,1595,1595,1595,1595,1595,1595,1595,1595,1595,1595,1595,1595,1595,1595,1595,1595,1595,1595,
1595,1595,1595,1595,1595,1595,1595,1595,1595,1595,1595,1595,1595,1595,1595,1595,1595,1595,1595,1595,1595,1595,1595,1595,1595,1595,1595,1595,1595,1595,
1595,1595,1595,1595,1595,1595,1595,1595,1595,1595,1595,1595,1595,1595,1595,1595,1595,1595,1595,1595,1595,1595,1595,1595,1595,1595,1595,1595,1595,1595
</data>
 </layer>
</map>
