<?xml version="1.0" encoding="UTF-8"?>
<map version="1.10" tiledversion="1.11.2" orientation="orthogonal" renderorder="right-down" width="25" height="19" tilewidth="32" tileheight="32" infinite="0" nextlayerid="10" nextobjectid="201">
 <properties>
  <property name="BGM" value="Audio\BGM\Buff.mp3"/>
  <property name="Name" value="알 수 없는 곳 1"/>
  <property name="PPU" type="float" value="32"/>
  <property name="ReturnMap" type="int" value="1"/>
 </properties>
 <tileset firstgid="1" name="TemplateTileset" tilewidth="32" tileheight="32" tilecount="56" columns="7">
  <image source="../Tilesets/TemplateTileset.png" width="224" height="256"/>
 </tileset>
 <layer id="3" name="Tile Layer 1" width="25" height="19">
  <data encoding="csv">
7,7,7,7,7,7,7,7,7,7,7,7,7,7,7,7,7,7,7,7,7,7,7,7,7,
7,7,7,7,7,7,7,7,7,7,7,7,7,7,7,7,7,7,7,7,7,7,7,7,7,
7,7,7,7,7,7,7,7,7,7,7,7,7,7,7,7,7,7,7,7,7,7,7,7,7,
7,7,7,7,7,7,7,7,7,7,7,7,7,7,7,7,7,7,7,7,7,7,7,7,7,
7,7,7,7,7,7,7,7,7,7,7,7,7,7,7,7,7,7,7,7,7,7,7,7,7,
7,7,7,7,7,7,7,7,7,7,7,7,7,7,7,7,7,7,7,7,7,7,7,7,7,
7,7,7,7,7,7,7,7,7,7,7,7,7,7,7,7,7,7,7,7,7,7,7,7,7,
7,7,7,7,7,7,7,7,7,7,7,7,7,7,7,7,7,7,7,7,7,7,7,7,7,
7,7,7,7,7,7,7,7,7,7,7,7,7,7,7,7,7,7,7,7,7,7,7,7,7,
7,7,7,7,7,7,7,7,7,7,7,7,7,7,7,7,7,7,7,7,7,7,7,7,7,
7,7,7,7,7,7,7,7,7,7,7,7,7,7,7,7,7,7,7,7,7,7,7,7,7,
7,7,7,7,7,7,7,7,7,7,7,7,7,7,7,7,7,7,7,7,7,7,7,7,7,
7,7,7,7,7,7,7,7,7,7,7,7,7,7,7,7,7,7,7,7,7,7,7,7,7,
7,7,7,7,7,7,7,7,7,7,7,7,7,7,7,7,7,7,7,7,7,7,7,7,7,
7,7,7,7,7,7,7,7,7,7,7,7,7,7,7,7,7,7,7,7,7,7,7,7,7,
7,7,7,7,7,7,7,7,7,7,7,7,7,7,7,7,7,7,7,7,7,7,7,7,7,
7,7,7,7,7,7,7,7,7,7,7,7,7,7,7,7,7,7,7,7,7,7,7,7,7,
7,7,7,7,7,7,7,7,7,7,7,7,7,7,7,7,7,7,7,7,7,7,7,7,7,
7,7,7,7,7,7,7,7,7,7,7,7,7,7,7,7,7,7,7,7,7,7,7,7,7
</data>
 </layer>
 <layer id="4" name="Tile Layer 2" width="25" height="19">
  <data encoding="csv">
0,0,0,0,0,0,0,0,0,0,0,0,0,0,0,0,0,0,0,0,0,0,0,0,0,
0,0,0,0,0,0,0,0,0,0,0,0,0,0,0,0,0,0,0,0,0,0,0,0,0,
0,0,0,0,0,0,0,0,0,0,0,0,0,0,0,0,0,0,0,0,0,0,0,0,0,
0,0,0,0,0,0,0,0,0,0,0,0,0,0,0,0,0,0,0,0,0,0,0,0,0,
0,0,0,0,0,0,0,0,0,0,0,0,0,0,0,0,0,0,0,0,0,0,0,0,0,
0,0,0,0,0,0,0,0,0,0,0,0,0,0,0,0,0,0,0,0,0,0,0,0,0,
0,0,0,0,0,0,0,0,0,0,0,0,0,0,0,0,0,0,0,0,0,0,0,0,0,
0,0,0,0,0,0,0,0,0,0,0,0,0,0,0,0,0,0,0,0,0,0,0,0,0,
0,0,0,0,0,0,0,0,0,0,0,0,0,0,0,0,0,0,0,0,0,0,0,0,0,
0,0,0,0,0,0,0,0,0,0,0,0,0,0,0,0,0,0,0,0,0,0,0,0,0,
0,0,0,0,0,0,0,0,0,0,0,0,0,0,0,0,0,0,0,0,0,0,0,0,0,
0,0,0,0,0,0,0,0,0,32,32,32,32,32,0,0,0,0,0,0,0,0,0,0,0,
0,0,0,0,0,0,0,0,0,0,0,0,0,0,0,0,0,0,0,0,0,0,0,0,0,
0,0,0,0,0,0,0,0,0,0,0,0,0,0,0,0,0,0,0,0,0,0,0,0,0,
0,0,0,0,0,0,0,0,0,0,0,0,0,0,0,32,32,32,32,0,0,0,0,0,0,
0,0,0,10,1,1,9,0,0,0,0,0,0,0,0,0,0,0,0,0,0,0,0,0,0,
0,0,10,1,1,1,1,9,0,0,0,0,0,0,0,0,0,0,0,0,0,0,0,0,0,
32,32,32,32,32,32,32,32,32,32,32,32,32,32,32,32,32,32,32,32,32,32,32,32,32,
32,32,32,32,32,32,32,32,32,32,32,32,32,32,32,32,32,32,32,32,32,32,32,32,32
</data>
 </layer>
 <objectgroup id="8" name="Portal">
  <object id="182" name="Portal" type="Portal" x="768" y="507">
   <properties>
    <property name="ID" type="int" value="0"/>
    <property name="ToID" type="int" value="0"/>
    <property name="ToMap" type="int" value="2"/>
   </properties>
   <point/>
  </object>
 </objectgroup>
 <objectgroup id="2" name="Foothold">
  <object id="18" x="288" y="352">
   <properties>
    <property name="ID" type="int" value="7"/>
    <property name="Next" type="int" value="0"/>
    <property name="Previous" type="int" value="0"/>
    <property name="Type" type="int" value="1"/>
   </properties>
   <polyline points="0,0 160,0"/>
  </object>
  <object id="19" x="480" y="448">
   <properties>
    <property name="ID" type="int" value="6"/>
    <property name="Next" type="int" value="0"/>
    <property name="Previous" type="int" value="0"/>
    <property name="Type" type="int" value="1"/>
   </properties>
   <polyline points="0,0 128,0"/>
  </object>
  <object id="28" x="0" y="512">
   <properties>
    <property name="ID" type="int" value="1"/>
    <property name="Next" type="int" value="2"/>
    <property name="Previous" type="int" value="0"/>
    <property name="Type" type="int" value="0"/>
   </properties>
   <polyline points="0,0 96,0"/>
  </object>
  <object id="29" x="113" y="540.333">
   <properties>
    <property name="ID" type="int" value="2"/>
    <property name="Next" type="int" value="3"/>
    <property name="Previous" type="int" value="1"/>
    <property name="Type" type="int" value="0"/>
   </properties>
   <polyline points="-32,-21.3333 -31.36,-85.3333"/>
  </object>
  <object id="30" x="82" y="454">
   <properties>
    <property name="ID" type="int" value="3"/>
    <property name="Next" type="int" value="4"/>
    <property name="Previous" type="int" value="2"/>
    <property name="Type" type="int" value="0"/>
   </properties>
   <polyline points="0,0 128,0"/>
  </object>
  <object id="33" x="208" y="457">
   <properties>
    <property name="ID" type="int" value="4"/>
    <property name="Next" type="int" value="5"/>
    <property name="Previous" type="int" value="3"/>
    <property name="Type" type="int" value="0"/>
   </properties>
   <polyline points="0,0 0.244421,21.0049 0.64,55"/>
  </object>
  <object id="34" x="256" y="513">
   <properties>
    <property name="ID" type="int" value="5"/>
    <property name="Next" type="int" value="0"/>
    <property name="Previous" type="int" value="4"/>
    <property name="Type" type="int" value="0"/>
   </properties>
   <polyline points="-64,-1 544,0"/>
  </object>
 </objectgroup>
 <objectgroup id="7" name="SpawnPoint"/>
 <objectgroup id="6" name="Spawn">
  <object id="12" name="Npc" type="Npc" x="304" y="352">
   <point/>
  </object>
 </objectgroup>
 <objectgroup id="9" name="Prop">
  <object id="164" name="Platform_0" type="Prop" x="48" y="544">
   <properties>
    <property name="Index" type="int" value="0"/>
    <property name="path" value="Sprites\Maps\platform.png"/>
   </properties>
   <point/>
  </object>
  <object id="165" name="platform_2" type="Prop" x="48" y="608">
   <properties>
    <property name="index" type="int" value="2"/>
    <property name="path" value="Sprites\Maps\platform.png"/>
   </properties>
   <point/>
  </object>
  <object id="166" name="Platform_0" type="Prop" x="299" y="544">
   <properties>
    <property name="Index" type="int" value="0"/>
    <property name="path" value="Sprites\Maps\platform.png"/>
   </properties>
   <point/>
  </object>
  <object id="167" name="platform_2" type="Prop" x="295" y="608">
   <properties>
    <property name="index" type="int" value="2"/>
    <property name="path" value="Sprites\Maps\platform.png"/>
   </properties>
   <point/>
  </object>
  <object id="168" name="platform_2" type="Prop" x="446" y="608">
   <properties>
    <property name="index" type="int" value="2"/>
    <property name="path" value="Sprites\Maps\platform.png"/>
   </properties>
   <point/>
  </object>
  <object id="169" name="Platform_0" type="Prop" x="463" y="544">
   <properties>
    <property name="Index" type="int" value="0"/>
    <property name="path" value="Sprites\Maps\platform.png"/>
   </properties>
   <point/>
  </object>
  <object id="170" name="platform_2" type="Prop" x="593" y="608">
   <properties>
    <property name="index" type="int" value="2"/>
    <property name="path" value="Sprites\Maps\platform.png"/>
   </properties>
   <point/>
  </object>
  <object id="171" name="Platform_0" type="Prop" x="623" y="544">
   <properties>
    <property name="Index" type="int" value="0"/>
    <property name="path" value="Sprites\Maps\platform.png"/>
   </properties>
   <point/>
  </object>
  <object id="172" name="Platform_0" type="Prop" x="740" y="544">
   <properties>
    <property name="Index" type="int" value="0"/>
    <property name="path" value="Sprites\Maps\platform.png"/>
   </properties>
   <point/>
  </object>
  <object id="173" name="platform_2" type="Prop" x="740" y="608">
   <properties>
    <property name="index" type="int" value="2"/>
    <property name="path" value="Sprites\Maps\platform.png"/>
   </properties>
   <point/>
  </object>
  <object id="174" name="platform_2" type="Prop" x="144" y="552">
   <properties>
    <property name="index" type="int" value="2"/>
    <property name="path" value="Sprites\Maps\platform.png"/>
   </properties>
   <point/>
  </object>
  <object id="175" name="Platform_0" type="Prop" x="144" y="488">
   <properties>
    <property name="Index" type="int" value="0"/>
    <property name="path" value="Sprites\Maps\platform.png"/>
   </properties>
   <point/>
  </object>
  <object id="176" name="platform_2" type="Prop" x="144" y="616">
   <properties>
    <property name="index" type="int" value="2"/>
    <property name="path" value="Sprites\Maps\platform.png"/>
   </properties>
   <point/>
  </object>
  <object id="184" name="Flowers" type="Prop" x="113" y="458">
   <properties>
    <property name="Index" type="int" value="1"/>
    <property name="path" value="Sprites\Maps\flowers 2.png"/>
   </properties>
   <point/>
  </object>
  <object id="187" name="Landscape" type="Prop" x="352" y="512">
   <properties>
    <property name="index" type="int" value="1"/>
    <property name="path" value="Sprites\Maps\grass.png"/>
   </properties>
   <point/>
  </object>
  <object id="197" name="Platform_0" type="Prop" x="544" y="481">
   <properties>
    <property name="Index" type="int" value="1"/>
    <property name="path" value="Sprites\Maps\platform.png"/>
   </properties>
   <point/>
  </object>
  <object id="199" name="Platform_0" type="Prop" x="369" y="380">
   <properties>
    <property name="Index" type="int" value="0"/>
    <property name="path" value="Sprites\Maps\platform small.png"/>
   </properties>
   <point/>
  </object>
 </objectgroup>
</map>
