<?xml version="1.0" encoding="UTF-8"?>
<map version="1.10" tiledversion="1.10.2" orientation="orthogonal" renderorder="right-down" width="25" height="19" tilewidth="32" tileheight="32" infinite="0" nextlayerid="8" nextobjectid="25">
 <properties>
  <property name="name" value="Unknown Area 1"/>
  <property name="ppu" type="float" value="32"/>
  <property name="unique_id" type="int" value="0"/>
 </properties>
 <tileset firstgid="1" name="TemplateTileset" tilewidth="32" tileheight="32" tilecount="56" columns="7">
  <image source="../Tilesets/TemplateTileset.png" width="224" height="256"/>
 </tileset>
 <layer id="3" name="Tile Layer 1" width="25" height="19">
  <data encoding="csv">
7,7,7,7,7,7,7,7,7,7,7,7,7,7,7,7,7,7,7,7,7,7,7,7,7,
7,7,7,7,7,7,7,7,7,7,7,7,7,7,7,7,7,7,7,7,7,7,7,7,7,
7,7,7,7,7,7,7,7,7,7,7,7,7,7,7,7,7,7,7,7,7,7,7,7,7,
7,7,7,7,7,7,7,7,7,7,7,7,7,7,7,7,7,7,7,7,7,7,7,7,7,
7,7,7,7,7,7,7,7,7,7,7,7,7,7,7,7,7,7,7,7,7,7,7,7,7,
7,7,7,7,7,7,7,7,7,7,7,7,7,7,7,7,7,7,7,7,7,7,7,7,7,
7,7,7,7,7,7,7,7,7,7,7,7,7,7,7,7,7,7,7,7,7,7,7,7,7,
7,7,7,7,7,7,7,7,7,7,7,7,7,7,7,7,7,7,7,7,7,7,7,7,7,
7,7,7,7,7,7,7,7,7,7,7,7,7,7,7,7,7,7,7,7,7,7,7,7,7,
7,7,7,7,7,7,7,7,7,7,7,7,7,7,7,7,7,7,7,7,7,7,7,7,7,
7,7,7,7,7,7,7,7,7,7,7,7,7,7,7,7,7,7,7,7,7,7,7,7,7,
7,7,7,7,7,7,7,7,7,7,7,7,7,7,7,7,7,7,7,7,7,7,7,7,7,
7,7,7,7,7,7,7,7,7,7,7,7,7,7,7,7,7,7,7,7,7,7,7,7,7,
7,7,7,7,7,7,7,7,7,7,7,7,7,7,7,7,7,7,7,7,7,7,7,7,7,
7,7,7,7,7,7,7,7,7,7,7,7,7,7,7,7,7,7,7,7,7,7,7,7,7,
7,7,7,7,7,7,7,7,7,7,7,7,7,7,7,7,7,7,7,7,7,7,7,7,7,
7,7,7,7,7,7,7,7,7,7,7,7,7,7,7,7,7,7,7,7,7,7,7,7,7,
7,7,7,7,7,7,7,7,7,7,7,7,7,7,7,7,7,7,7,7,7,7,7,7,7,
7,7,7,7,7,7,7,7,7,7,7,7,7,7,7,7,7,7,7,7,7,7,7,7,7
</data>
 </layer>
 <layer id="4" name="Tile Layer 2" width="25" height="19">
  <data encoding="csv">
0,0,0,0,0,0,0,0,0,0,0,0,0,0,0,0,0,0,0,0,0,0,0,0,0,
0,0,0,0,0,0,0,0,0,0,0,0,0,0,0,0,0,0,0,0,0,0,0,0,0,
0,0,0,0,0,0,0,0,0,0,0,0,0,0,0,0,0,0,0,0,0,0,0,0,0,
0,0,0,0,0,0,0,0,0,0,0,0,0,0,0,0,0,0,0,0,0,0,0,0,0,
0,0,0,0,0,0,0,0,0,0,0,0,0,0,0,0,0,0,0,0,0,0,0,0,0,
0,0,0,0,0,0,0,0,0,0,0,0,0,0,0,0,0,0,0,0,0,0,0,0,0,
0,0,0,0,0,0,0,0,0,0,0,0,0,0,0,0,0,0,0,0,0,0,0,0,0,
0,0,0,0,0,0,0,0,0,0,0,0,0,0,0,0,0,0,0,0,0,0,0,0,0,
0,0,0,0,0,0,0,0,0,0,0,0,0,0,0,0,0,0,0,0,0,0,0,0,0,
0,0,0,0,0,0,0,0,0,0,0,0,0,0,0,0,0,0,0,0,0,0,0,0,0,
0,0,0,0,0,0,0,0,0,0,0,0,0,0,0,0,0,0,0,0,0,0,0,0,0,
0,0,0,0,0,0,0,0,0,32,32,32,32,32,0,0,0,0,0,0,0,0,0,0,0,
0,0,0,0,0,0,0,0,0,0,0,0,0,0,0,0,0,0,0,0,0,0,0,0,0,
0,0,0,0,0,0,0,0,0,0,0,0,0,0,0,0,0,0,0,0,0,0,0,0,0,
0,0,0,0,0,0,0,0,0,0,0,0,0,0,0,32,32,32,32,0,0,0,0,0,0,
0,0,0,10,1,1,9,0,0,0,0,0,0,0,0,0,0,0,0,0,0,0,0,0,0,
0,0,10,1,1,1,1,9,0,0,0,0,0,0,0,0,0,0,0,0,0,0,0,0,0,
32,32,32,32,32,32,32,32,32,32,32,32,32,32,32,32,32,32,32,32,32,32,32,32,32,
32,32,32,32,32,32,32,32,32,32,32,32,32,32,32,32,32,32,32,32,32,32,32,32,32
</data>
 </layer>
 <objectgroup id="2" name="Foothold">
  <object id="16" x="0" y="544">
   <properties>
    <property name="Type" type="int" value="0"/>
   </properties>
   <polyline points="0,0 800,0"/>
  </object>
  <object id="17" x="64" y="544">
   <properties>
    <property name="Type" type="int" value="0"/>
   </properties>
   <polyline points="0,0 64,-64 128,-64 192,0"/>
  </object>
  <object id="18" x="288" y="352">
   <properties>
    <property name="Type" type="int" value="1"/>
   </properties>
   <polyline points="0,0 160,0"/>
  </object>
  <object id="19" x="480" y="448">
   <properties>
    <property name="Type" type="int" value="1"/>
   </properties>
   <polyline points="0,0 128,0"/>
  </object>
 </objectgroup>
 <objectgroup id="7" name="SpawnPoint">
  <object id="20" name="SpawnPoint" x="352" y="544">
   <properties>
    <property name="ID" type="int" value="1"/>
   </properties>
   <point/>
  </object>
  <object id="21" name="SpawnPoint" x="512" y="448">
   <properties>
    <property name="ID" type="int" value="1"/>
   </properties>
   <point/>
  </object>
  <object id="22" name="SpawnPoint" x="416" y="352">
   <properties>
    <property name="ID" type="int" value="1"/>
   </properties>
   <point/>
  </object>
  <object id="23" name="SpawnPoint" x="320" y="352">
   <properties>
    <property name="ID" type="int" value="1"/>
   </properties>
   <point/>
  </object>
  <object id="24" name="SpawnPoint" x="480" y="544">
   <properties>
    <property name="ID" type="int" value="1"/>
   </properties>
   <point/>
  </object>
 </objectgroup>
 <objectgroup id="6" name="Spawn">
  <object id="12" name="NPC" type="NPC" x="304" y="352">
   <point/>
  </object>
 </objectgroup>
</map>
